!!!!SEGMENT: pl-kk--kk-i-1--013-005_borek-krzysztof--missa-te-deum-laudamus-agnus-dei.krn
!!!cenid: 15xx:700
!!!COM: Borek, Krzysztof
!!!COM-rismid: pe30020454
!!!CDT:
!!!CNT:
!!!OPR: [Missa] Te Deum laudamus
!!!OTL: Agnus Dei
!!!OMV: 005
!!!PDT:
!!!AGN: Sacred; Mass
!!!SMS-siglum: PL-Kk
!!!SMS-shelfmark: Kk.I.1
!!!SMS-shelfwork: 013-005 M
!!!SMS-variant:
!!!SMS-altvar:
!!!NIFC-rismid: 300257967
!!!URL-scan: http://repozytorium.nifc.pl/skany/pl-kk-nut--i-1
!!!ONB-nifc: UWAGA: Cantus (s. 75r-81v, skan 0077-0084), Altus (s. 73r-78v, skan 0265-0271), Tenor (s. 71r-76r, skan 0460-0465), Bassus (s. 70v-76r, skan 0632-0637). Części Mszy: 1. Kyrie, 2. Et in terra, 3. Patrem, 4. Sanctus, 5. Agnus Dei
**kern	**text	**kern	**text	**kern	**text	**kern	**text
*part4	*part4	*part3	*part3	*part2	*part2	*part1	*part1
*staff4	*staff4	*staff3	*staff3	*staff2	*staff2	*staff1	*staff1
*Iempty	*	*Itenor	*	*Iempty	*	*Iempty	*
*I"BASSVS	*	*I"TENOR	*	*I"ALTVS	*	*I"CANTVS	*
*I'B	*	*I'T	*	*I'A	*	*I'C	*
*ICvox	*	*ICvox	*	*ICvox	*	*ICvox	*
*stria6	*	*stria6	*	*stria6	*	*stria6	*
*clefF4	*	*clefC4	*	*clefC3	*	*clefC3	*
*k[]	*	*k[]	*	*	*	*M2/1	*
*a:	*	*a:	*	*	*	*M2/1	*
*	*	*	*	*	*	*met(C|)	*
=1-	=1-	=1-	=1-	=1-	=1-	=1-	=1-
!LO:SIC:v:o:t=sześciolinia	!	!LO:SIC:v:o:t=sześciolinia	!	!LO:SIC:v:o:t=sześciolinia	!	!LO:SIC:v:o:t=sześciolinia	!
1AA/	A-	0r	.	1.c\	A-	1.e\	A-
2E\	-gnus	.	.	.	.	.	.
2F\	De-	.	.	4B/	-gnus	2d\	-gnus
.	.	.	.	4A/	.	.	.
=2-	=2-	=2-	=2-	=2-	=2-	=2-	=2-
1E\	-i	1r	.	1B/	De-	1e\	.
*	*ij	*	*	*	*	*	*
2.AA/	A	1A\	Mi-	1A/	-i	2.c/	De-
4BB/	.	.	.	.	.	4d\	-i
=3-	=3-	=3-	=3-	=3-	=3-	=3-	=3-
2C/	.	1A\	-ſe-	1r	.	2e\	.
1D\	gnus	.	.	.	.	2f\	.
.	.	1A\	-re-	2r	.	2d\	.
2C/	De-	.	.	2A/	qui	2e\	.
=4-	=4-	=4-	=4-	=4-	=4-	=4-	=4-
1D\	-i	1A\	-re	2.d\	tol-	2.f\	.
*	*Xij	*	*	*	*	*	*
.	.	.	.	4c/	-lis	4e\	.
0r	.	1G/	n(os-	2B/	.	2d\	.
.	.	.	.	2c/	p(e)c-	2e\	.
=5-	=5-	=5-	=5-	=5-	=5-	=5-	=5-
.	.	1B\	-t)ri	2d\	-(ca)-	1r	.
.	.	.	.	2e\	-ta	.	.
2r	.	1.c\	Do-	2f\	m(un)-	2A/	qui
*	*	*	*	*	*	*custos:c	*
1AA/	qui	.	.	2e\	-di	2e\	tol-
!	!	!	!	!	!	!LO:LB:g=original	!
=6-	=6-	=6-	=6-	=6-	=6-	=6-	=6-
.	.	.	.	1r	.	2c/	-lis
2D/	tol-	2A/	-mi-	.	.	2d\	pec-
2C/	-lis	1A\	-ne	2r	.	2e\	-ca-
*custos:E	*	*	*	*custos:e	*	*	*
2D/	pec-	.	.	2f\	pec-	4d/	.
.	.	.	.	.	.	4c/	.
!LO:LB:g=original	!	!	!	!LO:LB:g=original	!	!	!
=7-	=7-	=7-	=7-	=7-	=7-	=7-	=7-
2E\	-ca-	2r	.	2e\	-ca-	2B/	-ta
2F\	-ta	1A\	mi-	2d\	-ta	2A/	.
1E\	m(un)-	.	.	1e\	m(un)-	1B/	mun-
.	.	2G/	-ſe-	.	.	.	.
=8-	=8-	=8-	=8-	=8-	=8-	=8-	=8-
2AA/	-di	2A/	-re-	1e\	-di	2c/	-di
*	*	*custos:G	*	*	*	*	*
1E\	mi-	2B\	-re	.	.	4B/	.
.	.	.	.	.	.	4A/	.
!	!	!LO:LB:g=original	!	!	!	!	!
.	.	1G/	noſ-	2r	.	2B/	.
2C/	-ſe-	.	.	2e\	mi-	2c/	.
=9-	=9-	=9-	=9-	=9-	=9-	=9-	=9-
2F\	-re-	2A/	-tri	2c/	-ſe-	1A/	.
*	*	*	*ij	*	*	*	*
2D/	-re	2d\	mi-	2f\	-re-	.	.
1E\	no-	2c\	-ſe-	2.e\	-re	1r	.
.	.	2B\	-re-	.	.	.	.
.	.	.	.	4d\	.	.	.
=10-	=10-	=10-	=10-	=10-	=10-	=10-	=10-
2F\	.	2A/	-re	4c\	.	2r	.
.	.	.	.	4d\	.	.	.
2E\	-bis	2.G/	noſ-	2e\	no-	2e\	mi-
2r	.	.	.	1B/	-bis	2d\	-ſe-
.	.	4A\	.	.	.	.	.
*	*ij	*	*	*	*	*	*
1E\	mi-	2B\	-tri	.	.	1e\	-re-
=11-	=11-	=11-	=11-	=11-	=11-	=11-	=11-
.	.	2c\	Do-	2r	.	.	.
*	*	*	*	*	*ij	*	*
2D/	-ſe-	2d\	-mi-	1A/	mi-	2f#X\	-re
1E\	-re	1B\	-ne	.	.	2e\	no-
*	*	*	*Xij	*	*	*	*
*	*	*	*	*	*	*custos:d	*
!	!	!	!LO:LB:g=original	!	!	!	!
.	.	.	.	2G/	-ſe-	2e\	-bis
!	!	!	!	!	!	!LO:LB:g=original	!
=12-	=12-	=12-	=12-	=12-	=12-	=12-	=12-
2F#X\	re	0r	.	2A/	-re-	2r	.
*	*	*	*	*	*	*	*ij
4E/	no-	.	.	2B/	-re	1d\	mi-
*custos:E	*	*	*	*	*	*	*
4D/	.	.	.	.	.	.	.
!LO:LB:g=original	!	!	!	!	!	!	!
1E\	.	.	.	1G/	no-	.	.
.	.	.	.	.	.	2c/	-ſe-
=13-	=13-	=13-	=13-	=13-	=13-	=13-	=13-
*	*	*	*	*custos:A	*	*	*
2D/	-bis	2r	.	1A/	-bis	2.d\	-re-
*	*Xij	*	*	*	*Xij	*	*
1D\	Mi-	1A\	mi-	.	.	.	.
.	.	.	.	.	.	4e\	.
.	.	.	.	0r	.	2f\	.
2D/	-ſe-	2F/	-ſe-	.	.	2.f\	-re
=14-	=14-	=14-	=14-	=14-	=14-	=14-	=14-
2C/	-re-	2G/	-re-	.	.	.	.
.	.	.	.	.	.	4e\	.
2AA/	-re	2A/	-re	.	.	1e\	no-
!	!	!	!	!LO:LB:g=original	!	!	!
1D\	no-	1F/	no-	1A/	mi-	.	.
.	.	.	.	.	.	2d\	.
=15-	=15-	=15-	=15-	=15-	=15-	=15-	=15-
!	!	!	!	!	!	!LO:TX:t=P:problem=adnotacja skryptora NR lub MR  i data 1513, choć zważywszy na czas powstania rękopisu to data niemożliwa - w 1513 jeszcze nie było rorantystów ani innego zespołu, który by na Wawelu mógł spiewać polifonię, a Borka jeszcze chyba w ogóle nie było na świecie. Tajemnica. Na 1613 to raczej nie wygląda, a 1543 też niewiele zmienia, bo Borek na Wawelu się zjawił dopiero jakoś 1547/48. 	!
2AA/	-bis	00.E/;	-bis	1.c\	-ſe	00.e\;	-bis
*	*ij	*	*	*	*	*	*Xij
1AA/	mi-	.	.	.	.	.	.
2GG/	-ſe-	.	.	2B/	.	.	.
=16-	=16-	=16-	=16-	=16-	=16-	=16-	=16-
2AA/	-re-	.	.	2A/	re-	.	.
2E\	-re	.	.	2G/	-re	.	.
0AA/	no-	.	.	0c\	no-	.	.
=17-	=17-	=17-	=17-	=17-	=17-	=17-	=17-
!LO:TX:t=P:problem=adnotacja skryptora NR lub MR  i data 1513, choć zważywszy na czas powstania rękopisu to data niemożliwa - w 1513 jeszcze nie było rorantystów ani innego zespołu, który by na Wawelu mógł spiewać polifonię, a Borka jeszcze chyba w ogóle nie było na świecie. Tajemnica. Na 1613 to raczej nie wygląda, a 1543 też niewiele zmienia, bo Borek na Wawelu się zjawił dopiero jakoś 1547/48. 	!	!	!	!LO:TX:t=P:problem=adnotacja skryptora NR lub MR  i data 1513, choć zważywszy na czas powstania rękopisu to data niemożliwa - w 1513 jeszcze nie było rorantystów ani innego zespołu, który by na Wawelu mógł spiewać polifonię, a Borka jeszcze chyba w ogóle nie było na świecie. Tajemnica. Na 1613 to raczej nie wygląda, a 1543 też niewiele zmienia, bo Borek na Wawelu się zjawił dopiero jakoś 1547/48. 	!	!	!
1El\;	-bis	.	.	1Bl/;	-bis/	.	.
*	*Xij	*	*	*	*	*	*
==	==	==	==	==	==	==	==
*-	*-	*-	*-	*-	*-	*-	*-
!!!system-decoration: [(s1,s2,s3,s4)]
!!!RDF**kern: l = terminal long
!!!ENC: Mateusz Solarz
!!!END: 2022-02-17
!!!AIN: 3 empty 1 tenor
!!!ENC: Leszek Kubiak
!!!END: 2022-02-23
